src/icons/heart.svg

<svg width="16" height="16" viewBox="0 0 16 16" fill="none" xmlns="http://www.w3.org/2000/svg">
<path d="M14.88 4.78006C14.7993 4.46425 14.6748 4.16128 14.51 3.88003C14.3518 3.58746 14.1493 3.32097 13.91 3.08999C13.563 2.74413 13.152 2.46909 12.7 2.28006C11.7902 1.90665 10.7698 1.90665 9.85999 2.28006C9.43276 2.4609 9.04027 2.71468 8.70002 3.03006L8.65003 3.08999L8.00001 3.74002L7.34999 3.08999L7.3 3.03006C6.95975 2.71468 6.56726 2.4609 6.14002 2.28006C5.23018 1.90665 4.20984 1.90665 3.3 2.28006C2.84798 2.46909 2.43706 2.74413 2.09004 3.08999C1.85051 3.32329 1.64514 3.58929 1.48002 3.88003C1.32258 4.16367 1.20161 4.46609 1.12 4.78006C1.03522 5.10648 0.994861 5.44285 1.00001 5.78006C1.00053 6.09718 1.04084 6.41292 1.12 6.72C1.20384 7.03004 1.32472 7.32888 1.48002 7.61001C1.64774 7.89902 1.85285 8.16468 2.09004 8.40005L8.00001 14.3101L13.91 8.40005C14.1471 8.16709 14.3492 7.90095 14.51 7.61001C14.6729 7.33138 14.7974 7.03199 14.88 6.72C14.9592 6.41292 14.9995 6.09718 15 5.78006C15.0052 5.44285 14.9648 5.10648 14.88 4.78006ZM13.88 6.41006C13.8212 6.63368 13.7338 6.8488 13.62 7.05008C13.5012 7.25741 13.3568 7.44887 13.19 7.62002L7.97999 12.82L2.77003 7.62002C2.60025 7.44904 2.45244 7.25762 2.33003 7.05008C2.21483 6.84476 2.12419 6.62656 2.06001 6.40005C2.00877 6.17357 1.98196 5.94219 1.98002 5.70999C1.98138 5.47115 2.00818 5.23318 2.06001 5.00003C2.12231 4.77287 2.21304 4.55445 2.33003 4.35C2.44997 4.1408 2.59802 3.94907 2.77003 3.78006C3.02693 3.5266 3.32868 3.32317 3.65998 3.18008C4.3276 2.91301 5.07239 2.91301 5.74 3.18008C6.06917 3.31717 6.36818 3.5176 6.62001 3.77005L7.97999 5.14004L9.34004 3.77005C9.59186 3.5176 9.89081 3.31717 10.22 3.18008C10.8876 2.91301 11.6324 2.91301 12.3 3.18008C12.6313 3.32317 12.9331 3.5266 13.19 3.78006C13.3643 3.94464 13.5096 4.13726 13.62 4.35C13.7338 4.55128 13.8212 4.7664 13.88 4.99002C13.9401 5.2185 13.9703 5.45373 13.97 5.68997C13.9837 5.93159 13.9635 6.17404 13.91 6.41006H13.88Z" fill="white"/>
</svg>

<svg width="16" height="16" xmlns="http://www.w3.org/2000/svg"><path d="M14.88 4.78a3.489 3.489 0 0 0-.37-.9 3.24 3.24 0 0 0-.6-.79 3.78 3.78 0 0 0-1.21-.81 3.74 3.74 0 0 0-2.84 0 4 4 0 0 0-1.16.75l-.05.06-.65.65-.65-.65-.05-.06a4 4 0 0 0-1.16-.75 3.74 3.74 0 0 0-2.84 0 3.78 3.78 0 0 0-1.21.81 3.55 3.55 0 0 0-.97 1.69 3.75 3.75 0 0 0-.12 1c0 .317.04.633.12.94a4 4 0 0 0 .36.89 3.8 3.8 0 0 0 .61.79L8 14.31l5.91-5.91c.237-.233.44-.5.6-.79A3.578 3.578 0 0 0 15 5.78a3.747 3.747 0 0 0-.12-1zm-1 1.63a2.69 2.69 0 0 1-.69 1.21l-5.21 5.2-5.21-5.2a2.9 2.9 0 0 1-.44-.57 3 3 0 0 1-.27-.65 3.25 3.25 0 0 1-.08-.69A3.36 3.36 0 0 1 2.06 5a2.8 2.8 0 0 1 .27-.65c.12-.21.268-.4.44-.57a2.91 2.91 0 0 1 .89-.6 2.8 2.8 0 0 1 2.08 0c.33.137.628.338.88.59l1.36 1.37 1.36-1.37a2.72 2.72 0 0 1 .88-.59 2.8 2.8 0 0 1 2.08 0c.331.143.633.347.89.6.174.165.32.357.43.57a2.69 2.69 0 0 1 .35 1.34 2.6 2.6 0 0 1-.06.72h-.03z"/></svg>
